public/badges/vk.svg

<svg width="189" height="56" viewBox="0 0 189 56" fill="none" xmlns="http://www.w3.org/2000/svg">
<path d="M0.5 16C0.5 12.2148 0.50103 9.4255 0.783995 7.28743C1.06516 5.16294 1.61657 3.7568 2.66286 2.6939C3.70807 1.6321 5.08907 1.07342 7.17665 0.788294C9.27942 0.501095 12.0233 0.5 15.75 0.5H173.25C176.977 0.5 179.721 0.501095 181.823 0.788294C183.911 1.07342 185.292 1.6321 186.337 2.6939C187.383 3.7568 187.935 5.16294 188.216 7.28743C188.499 9.4255 188.5 12.2148 188.5 16V40C188.5 43.7852 188.499 46.5745 188.216 48.7126C187.935 50.8371 187.383 52.2432 186.337 53.3061C185.292 54.3679 183.911 54.9266 181.823 55.2117C179.721 55.4989 176.977 55.5 173.25 55.5H15.75C12.0233 55.5 9.27942 55.4989 7.17665 55.2117C5.08907 54.9266 3.70807 54.3679 2.66286 53.3061C1.61657 52.2432 1.06516 50.8371 0.783995 48.7126C0.50103 46.5745 0.5 43.7852 0.5 40V16Z" fill="black" stroke="#C0C0C0"/>
<path fill-rule="evenodd" clip-rule="evenodd" d="M14.2494 14.2494C12.0673 16.4316 12.002 19.9039 12.0001 26.7199C18.1082 26.7199 21.9218 24.0975 25.267 21.7973C27.8804 20.0003 30.2078 18.3999 33.12 18.3999C37.4545 18.3999 41.2392 21.4647 43.246 23.0897C43.529 23.3189 43.7767 23.5194 43.9855 23.6787C43.9221 18.819 43.5813 16.0802 41.7506 14.2494C39.5012 12 35.8808 12 28.64 12L27.36 12C20.1192 12 16.4988 12 14.2494 14.2494ZM26.5757 43.9999C26.8323 44 27.0937 44 27.36 44L28.64 44C28.9065 44 29.1681 44 29.4249 43.9999L26.5757 43.9999ZM44 28.8389C44 28.7729 44 28.7066 44 28.64L44 28.64L44 27.36C44 27.2934 44 27.2271 44 27.1611L44 28.8389Z" fill="#0077FF"/>
<path fill-rule="evenodd" clip-rule="evenodd" d="M12.0001 26.72C18.1082 26.72 21.9218 24.0976 25.267 21.7974C27.8804 20.0004 30.2078 18.4 33.12 18.4C37.4545 18.4 41.2392 21.4648 43.246 23.0898C43.529 23.319 43.7767 23.5195 43.9855 23.6788C44 24.7902 44 26.0125 44 27.3603L44 28.6403L44 28.6403C44 35.8811 44 39.5014 41.7506 41.7509C39.6131 43.8883 36.2378 43.9947 29.6948 44L26.3052 44C19.7622 43.9947 16.3869 43.8883 14.2494 41.7509C12 39.5014 12 35.8811 12 28.6403L12 27.3603C12 27.1436 12 26.9302 12.0001 26.72Z" fill="#F45FFF"/>
<path d="M36.8 28.3119C36.8 27.521 37.4492 26.8799 38.24 26.8799V26.8799C39.0309 26.8799 39.68 27.521 39.68 28.3119L39.68 34.0879C39.68 34.8788 39.0309 35.5199 38.24 35.5199V35.5199C37.4492 35.5199 36.8 34.8788 36.8 34.0879L36.8 28.3119Z" fill="white"/>
<path d="M31.6804 24.6322C31.6804 23.8413 32.3295 23.2002 33.1204 23.2002V23.2002C33.9113 23.2002 34.5604 23.8413 34.5604 24.6322L34.5604 37.7682C34.5604 38.5591 33.9113 39.2002 33.1204 39.2002V39.2002C32.3295 39.2002 31.6804 38.5591 31.6804 37.7682L31.6804 24.6322Z" fill="white"/>
<path d="M26.5603 28.3119C26.5603 27.521 27.2094 26.8799 28.0003 26.8799V26.8799C28.7912 26.8799 29.4403 27.521 29.4403 28.3119L29.4403 34.0879C29.4403 34.8788 28.7912 35.5199 28.0003 35.5199V35.5199C27.2094 35.5199 26.5603 34.8788 26.5603 34.0879L26.5603 28.3119Z" fill="white"/>
<path d="M21.4397 30.392C21.4397 29.6011 22.0888 28.96 22.8797 28.96V28.96C23.6706 28.96 24.3197 29.6011 24.3197 30.392L24.3197 32.008C24.3197 32.7988 23.6706 33.44 22.8797 33.44V33.44C22.0888 33.44 21.4397 32.7988 21.4397 32.008L21.4397 30.392Z" fill="white"/>
<path d="M16.3196 30.392C16.3196 29.6011 16.9687 28.96 17.7596 28.96V28.96C18.5505 28.96 19.1996 29.6011 19.1996 30.392L19.1996 32.008C19.1996 32.7988 18.5505 33.44 17.7596 33.44V33.44C16.9687 33.44 16.3196 32.7988 16.3196 32.008L16.3196 30.392Z" fill="white"/>
<path d="M58.8568 20.2654C58.1181 20.2654 57.4513 20.1064 56.8565 19.7886C56.2712 19.4613 55.8155 19.0126 55.4893 18.4423C55.1631 17.872 55 17.2269 55 16.507C55 15.7778 55.1631 15.128 55.4893 14.5577C55.8155 13.9874 56.2712 13.5433 56.8565 13.2255C57.4417 12.8982 58.1085 12.7346 58.8568 12.7346C59.6531 12.7346 60.3631 12.9216 60.9867 13.2956C61.6199 13.6695 62.0708 14.2071 62.3395 14.9083L61.0155 15.1187C60.8428 14.7821 60.5694 14.511 60.1952 14.3053C59.8306 14.0996 59.4133 13.9968 58.9432 13.9968C58.214 13.9968 57.6192 14.2305 57.1587 14.698C56.7077 15.1654 56.4823 15.7684 56.4823 16.507C56.4823 17.2456 56.7077 17.8486 57.1587 18.3161C57.6192 18.7742 58.214 19.0032 58.9432 19.0032C59.4325 19.0032 59.8642 18.8957 60.2384 18.6807C60.6221 18.4657 60.9004 18.1805 61.0731 17.8252L62.397 18.0356C62.1284 18.7461 61.6679 19.2977 61.0155 19.6904C60.3727 20.0737 59.6531 20.2654 58.8568 20.2654Z" fill="white"/>
<path d="M64.4522 12.8749H69.6761V20.1251H68.2658V14.137H65.7618L65.5459 17.5588C65.4979 18.4096 65.2725 19.064 64.8695 19.5221C64.4665 19.9709 63.9197 20.1953 63.2289 20.1953C63.0466 20.1953 62.8451 20.1812 62.6245 20.1532L62.4806 18.835C62.6053 18.8443 62.7924 18.849 63.0418 18.849C63.4256 18.849 63.699 18.7555 63.8621 18.5685C64.0252 18.3815 64.1212 18.0543 64.1499 17.5868L64.4522 12.8749Z" fill="white"/>
<path d="M76.9177 12.8749H78.3712L75.2627 21.219C75.0324 21.8454 74.7302 22.2988 74.3561 22.5793C73.9819 22.8598 73.483 23 72.8594 23H71.7513L71.6217 21.7379H72.9457C73.224 21.7379 73.4398 21.6771 73.5933 21.5556C73.7468 21.4434 73.8764 21.2424 73.9819 20.9525L74.1402 20.5318L70.8302 12.8749H72.3413L74.7014 18.4703H74.9029L76.9177 12.8749Z" fill="white"/>
<path d="M89.6771 20.1251H79.6465V12.8749H81.0568V18.863H83.9638V12.8749H85.3742V18.863H88.2668V12.8749H89.6771V20.1251Z" fill="white"/>
<path d="M94.5421 12.7346C95.4631 12.7346 96.1875 13.0291 96.7151 13.6181C97.2524 14.1978 97.521 15.0111 97.521 16.0583V20.1251H96.5137L96.1827 18.9892C95.9428 19.3538 95.6214 19.6577 95.2185 19.9008C94.8155 20.1438 94.331 20.2654 93.765 20.2654C93.2661 20.2654 92.82 20.1672 92.4266 19.9709C92.0332 19.7745 91.7262 19.5034 91.5056 19.1575C91.2849 18.8022 91.1746 18.4049 91.1746 17.9655C91.1746 17.283 91.4528 16.7361 92.0093 16.3247C92.5657 15.9133 93.3716 15.7077 94.427 15.7077H96.1107C96.0723 15.1374 95.9092 14.698 95.6214 14.3894C95.3336 14.0716 94.9498 13.9126 94.4701 13.9126C94.1056 13.9126 93.7842 13.9968 93.5059 14.165C93.2277 14.3333 93.0166 14.553 92.8727 14.8242L91.5631 14.6138C91.755 14.0342 92.1244 13.5761 92.6712 13.2395C93.2181 12.9029 93.8417 12.7346 94.5421 12.7346ZM94.0672 19.1014C94.6716 19.1014 95.1609 18.9097 95.5351 18.5264C95.9188 18.1338 96.1107 17.5962 96.1107 16.9137V16.8296H94.4701C93.2229 16.8296 92.5993 17.1942 92.5993 17.9234C92.5993 18.2787 92.7336 18.5638 93.0022 18.7789C93.2709 18.9939 93.6259 19.1014 94.0672 19.1014Z" fill="white"/>
<path d="M101.465 20.1251H99.3781V12.8749H100.745V18.5825H100.961L103.969 12.8749H106.056V20.1251H104.688V14.4315H104.473L101.465 20.1251ZM102.731 11.9353C102.108 11.9353 101.585 11.7763 101.163 11.4585C100.75 11.1312 100.505 10.6451 100.429 10H101.58C101.628 10.2992 101.748 10.5282 101.94 10.6872C102.141 10.8367 102.405 10.9115 102.731 10.9115C103.057 10.9115 103.316 10.8367 103.508 10.6872C103.71 10.5282 103.83 10.2992 103.868 10H105.034C104.947 10.6451 104.693 11.1312 104.271 11.4585C103.859 11.7763 103.345 11.9353 102.731 11.9353Z" fill="white"/>
<path d="M111.246 20.1251H109.835V14.137H107.259V12.8749H113.822V14.137H111.246V20.1251Z" fill="white"/>
<path d="M121.963 16.4509C121.963 16.6379 121.958 16.7828 121.948 16.8857H115.803C115.88 17.5307 116.139 18.0449 116.58 18.4283C117.022 18.8116 117.583 19.0032 118.264 19.0032C118.734 19.0032 119.152 18.9144 119.516 18.7368C119.89 18.5498 120.173 18.3067 120.365 18.0076L121.689 18.2179C121.401 18.8723 120.936 19.3772 120.293 19.7325C119.66 20.0877 118.955 20.2654 118.178 20.2654C117.439 20.2654 116.777 20.1064 116.192 19.7886C115.606 19.4613 115.151 19.0126 114.825 18.4423C114.498 17.872 114.335 17.2269 114.335 16.507C114.335 15.7778 114.498 15.128 114.825 14.5577C115.151 13.9874 115.602 13.5433 116.177 13.2255C116.753 12.8982 117.41 12.7346 118.149 12.7346C118.878 12.7346 119.53 12.8982 120.106 13.2255C120.691 13.5433 121.147 13.9874 121.473 14.5577C121.799 15.1187 121.963 15.7497 121.963 16.4509ZM118.149 13.9547C117.583 13.9547 117.094 14.1183 116.681 14.4455C116.278 14.7727 116.009 15.2122 115.875 15.7638H120.423C120.298 15.2215 120.029 14.7868 119.617 14.4595C119.214 14.123 118.725 13.9547 118.149 13.9547Z" fill="white"/>
<path d="M131.719 16.3247C132.103 16.4649 132.41 16.694 132.64 17.0119C132.88 17.3204 133 17.685 133 18.1057C133 18.489 132.885 18.835 132.655 19.1435C132.434 19.452 132.122 19.6951 131.719 19.8727C131.316 20.041 130.856 20.1251 130.338 20.1251H126.783V12.8749H130.208C130.697 12.8749 131.134 12.959 131.518 13.1273C131.901 13.2956 132.199 13.5246 132.41 13.8145C132.631 14.1043 132.741 14.4362 132.741 14.8101C132.741 15.1654 132.65 15.4739 132.468 15.7357C132.295 15.9881 132.045 16.1845 131.719 16.3247ZM128.193 14.0388V15.8198H130.208C130.534 15.8198 130.803 15.7404 131.014 15.5814C131.225 15.4132 131.331 15.1981 131.331 14.9364C131.331 14.6746 131.225 14.4595 131.014 14.2913C130.803 14.123 130.534 14.0388 130.208 14.0388H128.193ZM130.338 18.9612C130.712 18.9612 131.014 18.8677 131.244 18.6807C131.475 18.4937 131.59 18.2506 131.59 17.9515C131.59 17.6523 131.475 17.4092 131.244 17.2222C131.014 17.0352 130.712 16.9417 130.338 16.9417H128.193V18.9612H130.338Z" fill="white"/>
<path d="M64.9816 43.2692H60.8618L55 27H58.0369L62.7216 40.4077H63.1924L68.042 27H71.0317L64.9816 43.2692Z" fill="white"/>
<path d="M78.4043 34.8462L86.0317 43.2692H82.3122L76.0972 36.3H75.391V43.2692H72.566V27H75.391V33.6231H76.0737L81.959 27H85.4432L78.4043 34.8462Z" fill="white"/>
<path d="M94.5637 43.2692H91.8093V27H96.2351L100.755 39.3H101.132L105.746 27H110.077V43.2692H107.323V30.6923H106.946L102.215 43.2692H99.578L94.9403 30.6923H94.5637V43.2692Z" fill="white"/>
<path d="M121.608 31.2692H124.362L119.348 44.7692C118.924 45.9077 118.375 46.7308 117.7 47.2385C117.041 47.7462 116.154 48 115.04 48H113.18L112.944 45.5769H115.228C115.683 45.5769 116.028 45.4769 116.264 45.2769C116.515 45.0923 116.727 44.7615 116.899 44.2846L117.041 43.9154L111.603 31.2692H114.498L118.1 39.9231H118.477L121.608 31.2692Z" fill="white"/>
<path d="M132.407 37.1538C133.082 37.3538 133.639 37.7 134.078 38.1923C134.534 38.6692 134.761 39.2615 134.761 39.9692C134.761 40.6308 134.549 41.2308 134.125 41.7692C133.717 42.2923 133.121 42.7154 132.336 43.0385C131.567 43.3462 130.681 43.5 129.676 43.5C128.342 43.5 127.196 43.1923 126.239 42.5769C125.297 41.9615 124.677 41.1462 124.379 40.1308L126.875 39.7154C127.141 40.2538 127.495 40.6462 127.934 40.8923C128.374 41.1231 128.946 41.2385 129.653 41.2385C130.422 41.2385 131.01 41.1077 131.418 40.8462C131.842 40.5846 132.054 40.2231 132.054 39.7615C132.054 38.8538 131.253 38.4 129.653 38.4H128.122V36.0923H129.653C130.375 36.0923 130.924 35.9769 131.3 35.7462C131.677 35.5 131.865 35.1692 131.865 34.7538C131.865 34.3077 131.669 33.9538 131.277 33.6923C130.885 33.4308 130.398 33.3 129.817 33.3C129.237 33.3 128.711 33.4385 128.24 33.7154C127.785 33.9923 127.432 34.3692 127.181 34.8462L124.685 34.4308C125.046 33.3231 125.69 32.4846 126.616 31.9154C127.557 31.3308 128.656 31.0385 129.912 31.0385C130.806 31.0385 131.607 31.1846 132.313 31.4769C133.019 31.7692 133.568 32.1769 133.961 32.7C134.369 33.2231 134.573 33.8154 134.573 34.4769C134.573 35.1385 134.369 35.7077 133.961 36.1846C133.568 36.6615 133.05 36.9846 132.407 37.1538Z" fill="white"/>
<path d="M136.877 43.2692V31.2692H139.584V34.6846H141.491C142.464 34.6846 143.327 34.8692 144.08 35.2385C144.834 35.5923 145.422 36.1 145.846 36.7615C146.27 37.4077 146.481 38.1462 146.481 38.9769C146.481 39.8077 146.27 40.5538 145.846 41.2154C145.422 41.8615 144.826 42.3692 144.057 42.7385C143.303 43.0923 142.448 43.2692 141.491 43.2692H136.877ZM150.648 43.2692H147.941V31.2692H150.648V43.2692ZM141.491 40.9615C142.165 40.9615 142.715 40.7769 143.139 40.4077C143.562 40.0385 143.774 39.5615 143.774 38.9769C143.774 38.3923 143.562 37.9154 143.139 37.5462C142.715 37.1769 142.165 36.9923 141.491 36.9923H139.584V40.9615H141.491Z" fill="white"/>
<path d="M164.393 43.2692H160.838L156.601 38.4923H155.941V43.2692H153.234V31.2692H155.941V35.9308H156.601L160.697 31.2692H163.922L158.766 37.0385L164.393 43.2692Z" fill="white"/>
<path d="M177 37.1308C177 37.3615 176.984 37.6462 176.953 37.9846H167.113C167.238 38.9231 167.631 39.6769 168.29 40.2462C168.949 40.8 169.788 41.0769 170.809 41.0769C171.499 41.0769 172.119 40.9462 172.668 40.6846C173.233 40.4231 173.665 40.0692 173.963 39.6231L176.506 40.0385C176.066 41.1462 175.305 42 174.222 42.6C173.155 43.2 171.962 43.5 170.644 43.5C169.42 43.5 168.321 43.2385 167.348 42.7154C166.391 42.1769 165.637 41.4385 165.088 40.5C164.554 39.5462 164.288 38.4692 164.288 37.2692C164.288 36.0692 164.554 35 165.088 34.0615C165.637 33.1077 166.391 32.3692 167.348 31.8462C168.321 31.3077 169.42 31.0385 170.644 31.0385C171.868 31.0385 172.959 31.3077 173.916 31.8462C174.889 32.3692 175.642 33.1 176.176 34.0385C176.725 34.9615 177 35.9923 177 37.1308ZM170.644 33.3462C169.828 33.3462 169.114 33.5769 168.502 34.0385C167.905 34.5 167.497 35.1231 167.277 35.9077H174.057C173.822 35.1385 173.398 34.5231 172.786 34.0615C172.19 33.5846 171.476 33.3462 170.644 33.3462Z" fill="white"/>
</svg>

<svg width="189" height="56" fill="none" xmlns="http://www.w3.org/2000/svg"><path d="M.5 16c0-3.785.001-6.575.284-8.713.281-2.124.833-3.53 1.879-4.593C3.708 1.632 5.089 1.074 7.177.788 9.279.501 12.023.5 15.75.5h157.5c3.727 0 6.471.001 8.573.288 2.088.285 3.469.844 4.514 1.906 1.046 1.063 1.598 2.469 1.879 4.593.283 2.138.284 4.928.284 8.713v24c0 3.785-.001 6.575-.284 8.713-.281 2.124-.833 3.53-1.879 4.593-1.045 1.062-2.426 1.62-4.514 1.906-2.102.287-4.846.288-8.573.288H15.75c-3.727 0-6.47-.001-8.573-.288-2.088-.285-3.469-.844-4.514-1.906-1.046-1.063-1.598-2.469-1.879-4.593C.501 46.574.5 43.785.5 40V16z" fill="#000" stroke="silver"/><path fill-rule="evenodd" clip-rule="evenodd" d="M14.25 14.25c-2.183 2.182-2.248 5.654-2.25 12.47 6.108 0 9.922-2.622 13.267-4.923C27.88 20 30.207 18.4 33.12 18.4c4.335 0 8.12 3.065 10.126 4.69.283.229.53.43.74.589-.064-4.86-.405-7.599-2.235-9.43C39.5 12 35.88 12 28.64 12h-1.28c-7.24 0-10.861 0-13.11 2.25zM26.575 44h2.849-2.85zM44 28.839V27.16v1.678z" fill="#07F"/><path fill-rule="evenodd" clip-rule="evenodd" d="M12 26.72c6.108 0 9.922-2.622 13.267-4.923C27.88 20 30.207 18.4 33.12 18.4c4.335 0 8.12 3.065 10.126 4.69.283.229.53.43.74.589C44 24.79 44 26.013 44 27.36v1.28c0 7.241 0 10.861-2.25 13.11-2.137 2.138-5.512 2.245-12.055 2.25h-3.39c-6.543-.005-9.918-.112-12.056-2.25C12 39.502 12 35.882 12 28.64v-1.92z" fill="#F45FFF"/><path d="M36.8 28.312c0-.791.65-1.432 1.44-1.432.79 0 1.44.641 1.44 1.432v5.776c0 .79-.65 1.432-1.44 1.432-.79 0-1.44-.641-1.44-1.432v-5.776zM31.68 24.632c0-.79.65-1.432 1.44-1.432.791 0 1.44.641 1.44 1.432v13.136c0 .791-.649 1.432-1.44 1.432-.79 0-1.44-.64-1.44-1.432V24.632zM26.56 28.312c0-.791.65-1.432 1.44-1.432.791 0 1.44.641 1.44 1.432v5.776c0 .79-.649 1.432-1.44 1.432-.79 0-1.44-.641-1.44-1.432v-5.776zM21.44 30.392c0-.79.649-1.432 1.44-1.432.79 0 1.44.641 1.44 1.432v1.616c0 .79-.65 1.432-1.44 1.432-.791 0-1.44-.641-1.44-1.432v-1.616zM16.32 30.392c0-.79.649-1.432 1.44-1.432.79 0 1.44.641 1.44 1.432v1.616c0 .79-.65 1.432-1.44 1.432-.791 0-1.44-.641-1.44-1.432v-1.616zM58.857 20.265c-.739 0-1.406-.159-2-.476a3.524 3.524 0 0 1-1.368-1.347c-.326-.57-.489-1.215-.489-1.935 0-.73.163-1.379.49-1.95a3.426 3.426 0 0 1 1.366-1.332c.586-.327 1.252-.49 2-.49.797 0 1.507.187 2.13.56a3.108 3.108 0 0 1 1.354 1.613l-1.325.21c-.172-.336-.446-.607-.82-.813a2.503 2.503 0 0 0-1.252-.308c-.729 0-1.324.233-1.784.701-.451.467-.677 1.07-.677 1.809 0 .739.226 1.342.677 1.81.46.457 1.055.686 1.784.686.49 0 .921-.107 1.295-.322.384-.215.662-.5.835-.856l1.324.21a3.202 3.202 0 0 1-1.381 1.655 4.134 4.134 0 0 1-2.16.575zM64.452 12.875h5.224v7.25h-1.41v-5.988h-2.504l-.216 3.422c-.048.85-.274 1.505-.677 1.963-.403.449-.95.673-1.64.673-.182 0-.384-.014-.605-.042l-.143-1.318c.124.01.311.014.56.014.385 0 .658-.093.821-.28.163-.188.26-.515.288-.982l.302-4.712zM76.918 12.875h1.453l-3.108 8.344c-.23.626-.533 1.08-.907 1.36S73.483 23 72.86 23h-1.108l-.13-1.262h1.325c.278 0 .494-.06.647-.182.154-.113.283-.314.389-.604l.158-.42-3.31-7.657h1.511l2.36 5.595h.202l2.015-5.595zM89.677 20.125h-10.03v-7.25h1.41v5.988h2.907v-5.988h1.41v5.988h2.893v-5.988h1.41v7.25zM94.542 12.735c.921 0 1.645.294 2.173.883.537.58.806 1.393.806 2.44v4.067h-1.007l-.331-1.136c-.24.365-.562.669-.965.912-.403.243-.887.364-1.453.364-.499 0-.945-.098-1.338-.294a2.264 2.264 0 0 1-.921-.814 2.213 2.213 0 0 1-.331-1.192c0-.682.278-1.229.834-1.64.557-.412 1.363-.617 2.418-.617h1.684c-.039-.57-.202-1.01-.49-1.319-.287-.317-.671-.476-1.15-.476-.365 0-.687.084-.965.252-.278.168-.49.388-.633.66l-1.31-.211c.192-.58.561-1.038 1.108-1.375.547-.336 1.17-.504 1.871-.504zm-.475 6.366c.605 0 1.094-.191 1.468-.575.384-.392.576-.93.576-1.612v-.084h-1.64c-1.248 0-1.872.364-1.872 1.093 0 .356.135.64.403.856.269.215.624.322 1.065.322zM101.465 20.125h-2.087v-7.25h1.367v5.707h.216l3.008-5.707h2.087v7.25h-1.368v-5.694h-.215l-3.008 5.694zm1.266-8.19c-.623 0-1.146-.159-1.568-.476-.413-.328-.658-.814-.734-1.459h1.151c.048.3.168.528.36.687.201.15.465.225.791.225s.585-.075.777-.225c.202-.159.322-.388.36-.687h1.166c-.087.645-.341 1.131-.763 1.459-.412.317-.926.476-1.54.476zM111.246 20.125h-1.411v-5.988h-2.576v-1.262h6.563v1.262h-2.576v5.988zM121.963 16.45c0 .188-.005.333-.015.436h-6.145c.077.645.336 1.159.777 1.542.442.384 1.003.575 1.684.575.47 0 .888-.089 1.252-.266.374-.187.657-.43.849-.73l1.324.21a3.136 3.136 0 0 1-1.396 1.516 4.247 4.247 0 0 1-2.115.532c-.739 0-1.401-.159-1.986-.476a3.518 3.518 0 0 1-1.367-1.347c-.327-.57-.49-1.215-.49-1.935 0-.73.163-1.379.49-1.95a3.453 3.453 0 0 1 1.352-1.332c.576-.327 1.233-.49 1.972-.49.729 0 1.381.163 1.957.49a3.426 3.426 0 0 1 1.367 1.333c.326.56.49 1.192.49 1.893zm-3.814-2.495c-.566 0-1.055.163-1.468.49-.403.328-.672.767-.806 1.319h4.548a2.26 2.26 0 0 0-.806-1.304c-.403-.337-.892-.505-1.468-.505zM131.719 16.325c.384.14.691.369.921.687.24.308.36.673.36 1.094 0 .383-.115.729-.345 1.037-.221.309-.533.552-.936.73a3.556 3.556 0 0 1-1.381.252h-3.555v-7.25h3.425c.489 0 .926.084 1.31.252.383.169.681.398.892.688.221.29.331.621.331.995 0 .355-.091.664-.273.926a1.688 1.688 0 0 1-.749.589zm-3.526-2.286v1.78h2.015c.326 0 .595-.079.806-.238a.79.79 0 0 0 .317-.645.79.79 0 0 0-.317-.645c-.211-.168-.48-.252-.806-.252h-2.015zm2.145 4.922c.374 0 .676-.093.906-.28a.894.894 0 0 0 .346-.73c0-.299-.115-.542-.346-.729-.23-.187-.532-.28-.906-.28h-2.145v2.02h2.145zM64.982 43.27h-4.12L55 27h3.037l4.685 13.408h.47L68.042 27h2.99l-6.05 16.27zM78.404 34.846l7.628 8.423h-3.72L76.097 36.3h-.706v6.97h-2.825V27h2.825v6.623h.683L81.959 27h3.484l-7.039 7.846zM94.564 43.27h-2.755V27h4.426l4.52 12.3h.377l4.614-12.3h4.331v16.27h-2.754V30.691h-.377l-4.731 12.577h-2.637L94.94 30.692h-.376V43.27zM121.608 31.27h2.754l-5.014 13.5c-.424 1.138-.973 1.96-1.648 2.468-.659.508-1.546.762-2.66.762h-1.86l-.236-2.423h2.284c.455 0 .8-.1 1.036-.3.251-.185.463-.516.635-.992l.142-.37-5.438-12.646h2.895l3.602 8.654h.377l3.131-8.654zM132.407 37.154a3.53 3.53 0 0 1 1.671 1.038c.456.477.683 1.07.683 1.777 0 .662-.212 1.262-.636 1.8-.408.523-1.004.946-1.789 1.27-.769.307-1.655.461-2.66.461-1.334 0-2.48-.308-3.437-.923-.942-.615-1.562-1.43-1.86-2.446l2.496-.416c.266.539.62.931 1.059 1.177.44.231 1.012.346 1.719.346.769 0 1.357-.13 1.765-.392.424-.261.636-.623.636-1.084 0-.908-.801-1.362-2.401-1.362h-1.531v-2.308h1.531c.722 0 1.271-.115 1.647-.346.377-.246.565-.577.565-.992 0-.446-.196-.8-.588-1.062-.392-.261-.879-.392-1.46-.392-.58 0-1.106.139-1.577.415a2.854 2.854 0 0 0-1.059 1.131l-2.496-.415c.361-1.108 1.005-1.946 1.931-2.516.941-.584 2.04-.877 3.296-.877.894 0 1.695.147 2.401.439.706.292 1.255.7 1.648 1.223.408.523.612 1.115.612 1.777 0 .662-.204 1.23-.612 1.708-.393.476-.911.8-1.554.969zM136.877 43.27v-12h2.707v3.415h1.907c.973 0 1.836.184 2.589.553.754.354 1.342.862 1.766 1.523.424.647.635 1.385.635 2.216 0 .83-.211 1.577-.635 2.238-.424.646-1.02 1.154-1.789 1.523-.754.354-1.609.531-2.566.531h-4.614zm13.771 0h-2.707v-12h2.707v12zm-9.157-2.309c.674 0 1.224-.184 1.648-.553.423-.37.635-.846.635-1.431 0-.585-.212-1.062-.635-1.43-.424-.37-.974-.555-1.648-.555h-1.907v3.97h1.907zM164.393 43.27h-3.555l-4.237-4.778h-.66v4.777h-2.707v-12h2.707v4.662h.66l4.096-4.662h3.225l-5.156 5.77 5.627 6.23zM177 37.13c0 .231-.016.516-.047.855h-9.84c.125.938.518 1.692 1.177 2.261.659.554 1.498.83 2.519.83.69 0 1.31-.13 1.859-.391.565-.262.997-.616 1.295-1.062l2.543.416c-.44 1.107-1.201 1.961-2.284 2.561-1.067.6-2.26.9-3.578.9-1.224 0-2.323-.261-3.296-.785a5.951 5.951 0 0 1-2.26-2.215c-.534-.954-.8-2.03-.8-3.23 0-1.2.266-2.27.8-3.209a5.738 5.738 0 0 1 2.26-2.215c.973-.538 2.072-.808 3.296-.808 1.224 0 2.315.27 3.272.808a5.585 5.585 0 0 1 2.26 2.192c.549.924.824 1.954.824 3.093zm-6.356-3.784c-.816 0-1.53.23-2.142.693-.597.461-1.005 1.084-1.225 1.869h6.78c-.235-.77-.659-1.385-1.271-1.846-.596-.477-1.31-.716-2.142-.716z" fill="#fff"/></svg>
